logos/vivaldi-icon.svg

<?xml version="1.0" encoding="UTF-8"?>
<svg width="256px" height="256px" viewBox="0 0 256 256" version="1.1" xmlns="http://www.w3.org/2000/svg" xmlns:xlink="http://www.w3.org/1999/xlink" preserveAspectRatio="xMidYMid">
    <defs>
        <linearGradient x1="20.9848027%" y1="5.13176388%" x2="75.8463214%" y2="100.365967%" id="linearGradient-1">
            <stop stop-color="#000000" stop-opacity="0.2" offset="0%"></stop>
            <stop stop-color="#000000" stop-opacity="0.05" offset="79%"></stop>
        </linearGradient>
    </defs>
    <g>
        <path d="M127.998933,255.998933 C184.090667,255.998933 215.2608,255.998933 235.629867,235.629867 C255.998933,215.2608 255.998933,184.090667 255.998933,127.998933 C255.998933,71.9080533 255.998933,40.7376 235.629867,20.3687467 C215.2608,0 184.090667,0 127.998933,0 C71.9080533,0 40.6990933,0 20.3688533,20.3687467 C0.03857632,40.7376 0,71.9080533 0,127.998933 C0,184.090667 0,215.2608 20.3688533,235.629867 C40.7376,255.998933 71.9080533,255.998933 127.998933,255.998933 Z" fill="#EF3939"></path>
        <path d="M211.221333,80.6334933 C205.042133,69.4917333 194.4128,60.3685333 184.4064,52.48064 C174.398933,44.5927467 164.576,39.8404267 152.2976,36.43264 C140.0192,33.02496 127.470933,33.088 114.829867,34.69024 C102.187627,36.29248 91.3105067,39.17792 80.2708267,45.5410133 C69.2311467,51.9041067 60.65664,59.6951467 52.93536,69.8298667 C45.21408,79.9645867 40.0837333,90.0286933 36.8811733,102.359573 C33.6786133,114.690133 32.51808,128.352 34.33216,140.961067 C36.1461333,153.5712 38.3493333,165.5712 44.8980267,176.500267 L45.4379733,177.425067 L90.5288533,255.591467 C98.0119467,255.797333 106.112107,255.886933 114.829867,255.861333 L127.6352,255.861333 C148.0832,256.3008 168.5408,255.696 188.926933,254.049067 C209.3312,251.812267 223.988267,246.798933 235.2128,235.5008 C251.7216,218.9952 254.846933,195.3952 255.425067,157.218133 L211.221333,80.6334933 Z" fill="url(#linearGradient-1)"></path>
        <path d="M195.808,60.0850133 C182.381867,46.66848 165.28,37.5345067 146.6656,33.83776 C128.050133,30.1410133 108.757333,32.0474667 91.22592,39.31616 C73.6939733,46.5848533 58.71008,58.8893867 48.1682133,74.6744533 C37.6263467,90.45952 31.9998933,109.016533 31.9998933,127.998933 C31.9998933,146.9824 37.6263467,165.5392 48.1682133,181.3248 C58.71008,197.109333 73.6939733,209.4144 91.22592,216.682667 C108.757333,223.950933 128.050133,225.858133 146.6656,222.161067 C165.28,218.464 182.381867,209.330133 195.808,195.9136 C204.743467,187.005867 211.8336,176.421333 216.670933,164.766933 C221.508267,153.112533 223.998933,140.618667 223.998933,127.998933 C223.998933,115.380267 221.508267,102.88576 216.670933,91.2315733 C211.8336,79.57728 204.743467,68.9928533 195.808,60.0850133 L195.808,60.0850133 Z M190.053333,104.279573 C174.2176,131.8368 158.395733,159.381333 142.586667,186.913067 C141.339733,189.3536 139.4816,191.4304 137.1936,192.939733 C134.906667,194.449067 132.266667,195.3408 129.5328,195.527467 C126.514133,195.864533 123.464533,195.282133 120.782933,193.854933 C118.1024,192.427733 115.914667,190.222933 114.5088,187.530667 C104.5056,170.3008 94.5797333,152.955733 84.6538667,135.648 C78.5773867,125.140267 72.5266133,114.606933 66.5015467,104.047787 C65.0712533,101.676907 64.28256,98.9744 64.2129067,96.2061867 C64.1432533,93.4379733 64.7950933,90.6992 66.10432,88.2593067 C67.4135467,85.8194133 69.3351467,83.7624533 71.6801067,82.2904533 C74.0250667,80.81856 76.71264,79.9825067 79.4785067,79.8644267 C82.4558933,79.6818133 85.4225067,80.3652267 88.0199467,81.83232 C90.6174933,83.2993067 92.7348267,85.4871467 94.1162667,88.1316267 C98.5963733,95.85792 102.999253,103.584213 107.402667,111.310933 C110.608,116.8736 113.697067,122.436267 116.980267,127.922133 C119.067733,131.713067 122.098133,134.900267 125.7792,137.175467 C129.461333,139.4496 133.6672,140.7328 137.9904,140.9024 C144.5568,141.3088 151.0272,139.173333 156.0608,134.936533 C161.0944,130.699733 164.304,124.689067 165.026133,118.148267 C165.026133,117.105067 165.026133,116.061867 165.2576,115.521067 C165.281067,111.387733 164.3552,107.304533 162.554667,103.584213 C161.4496,101.535147 160.807467,99.2692267 160.670933,96.94528 C160.5344,94.62144 160.9088,92.2958933 161.7664,90.1319467 C162.624,87.9678933 163.9456,86.01792 165.636267,84.4186667 C167.328,82.8194133 169.348267,81.6098133 171.556267,80.8744533 C173.764267,80.1392 176.106667,79.8961067 178.4192,80.1623467 C180.730667,80.4285867 182.9568,81.1976533 184.939733,82.4155733 C186.923733,83.6334933 188.616533,85.2708267 189.899733,87.2125867 C191.182933,89.1543467 192.026667,91.3536 192.370133,93.6558933 C192.805333,97.3565867 191.989333,101.096427 190.053333,104.279573 L190.053333,104.279573 Z" fill="#FFFFFF"></path>
    </g>
</svg>

<svg width="256" height="256" xmlns="http://www.w3.org/2000/svg" preserveAspectRatio="xMidYMid">
	<defs>
		<linearGradient x1="20.985%" y1="5.132%" x2="75.846%" y2="100.366%" id="a">
			<stop stop-opacity=".2" offset="0%"/>
			<stop stop-opacity=".05" offset="79%"/>
		</linearGradient>
	</defs>
	<path d="M127.999 255.999c56.092 0 87.262 0 107.63-20.37C256 215.262 256 184.092 256 128c0-56.09 0-87.261-20.37-107.63C215.262 0 184.092 0 128 0c-56.09 0-87.3 0-107.63 20.369S0 71.909 0 127.999c0 56.092 0 87.262 20.369 107.63C40.738 256 71.909 256 127.999 256Z" fill="#EF3939"/>
	<path d="M211.221 80.633c-6.179-11.141-16.808-20.264-26.815-28.152-10.007-7.888-19.83-12.64-32.108-16.048-12.279-3.408-24.827-3.345-37.468-1.743-12.642 1.602-23.52 4.488-34.56 10.851-11.039 6.363-19.613 14.154-27.335 24.289-7.72 10.135-12.851 20.199-16.054 32.53-3.202 12.33-4.363 25.992-2.549 38.601 1.814 12.61 4.017 24.61 10.566 35.54l.54.924 45.09 78.166c7.484.206 15.584.296 24.302.27h12.805c20.448.44 40.906-.165 61.292-1.812 20.404-2.237 35.061-7.25 46.286-18.548 16.509-16.506 19.634-40.106 20.212-78.283l-44.204-76.585Z" fill="url(#a)"/>
	<path d="M195.808 60.085A95.952 95.952 0 0 0 91.226 39.316a95.98 95.98 0 0 0-43.058 35.358 96.017 96.017 0 0 0 0 106.65 95.98 95.98 0 0 0 43.058 35.359 95.953 95.953 0 0 0 104.582-20.77 95.909 95.909 0 0 0 20.863-104.682 95.883 95.883 0 0 0-20.863-31.146Zm-5.755 44.195a290355.412 290355.412 0 0 0-47.466 82.633 15.87 15.87 0 0 1-13.054 8.614 15.064 15.064 0 0 1-15.024-7.996c-10.003-17.23-19.93-34.575-29.855-51.883a6307.042 6307.042 0 0 1-18.152-31.6 15.958 15.958 0 0 1 12.977-24.184 15.445 15.445 0 0 1 14.637 8.268c4.48 7.726 8.883 15.452 13.287 23.179 3.205 5.563 6.294 11.125 9.577 16.611a25.124 25.124 0 0 0 8.8 9.253 25.11 25.11 0 0 0 12.21 3.727 25.604 25.604 0 0 0 27.036-22.754c0-1.043 0-2.086.232-2.627a27.05 27.05 0 0 0-2.703-11.937 15.956 15.956 0 0 1 15.864-23.422 15.947 15.947 0 0 1 11.48 7.05 15.959 15.959 0 0 1 2.471 6.444c.435 3.7-.38 7.44-2.317 10.624Z" fill="#FFF"/>
</svg>
